X: 476
T: Johnny Doyle
N:"Moderate"
N:Irish title: seanin ua do.bail
B:O'Neill's 476
Z:Transcribed by henrik.norbeck@mailbox.swipnet.se
M:2/4
L:1/8
K:Am
ed | cA AG | E2 DF | EA AA | A2 AE |
AB cd | ed ce | dB {d}cA | G3 E |
AB cd | ed ce | dB {d}cA | G2 ed |
cA AG | AG ED | EA AA | A2 ||


